X:2430
L:1/8
Q:3/8=120
M:6/8
K:F
"^As written" f/e/ | d2 D (F/G/A)G | E2 g fef"_sic" d | D (F/G/A)G A | f2 :: dfa afd | ceg gec | 
 dfa afd | f3 a3 | dfa gea | fdf edc | d2 D (F/G/A)G | A3 f3 :| z z z z | z z z z | z z z z | 
"^Suggested interptretation,CGP" f/e/ | d2 D (F/G/A)G | E2 g fef | d2 D (F/G/A)G | A3 f2 :: z | 
 dfa afd | ceg gec | dfa afd | f3 a3 | dfa gea | fdf edc | d2 D (F/G/A)G | A3 f2 :|

